X: 1980
T: When Clouds Have Vanished
B: australian traditional tunes wiki
M:3/4
L:1/8
R: Waltz
Q: 1/4=100
K:G
V:1 
|:"G"B2e2B2|"Em"B2c2B2|"G"B4"Am"A2|E6|"G"B4A2|"D"d4B2|A4G2|"G"D6|1
"G"D2E2G2|"Em"E2G2E2|"G"G4F2|"D7"F4FE|D2F2A2|d4e2|"G"B6-|B6:|2
"G"D2E2G2|G2A2B2|"C" e4d2|"G"B4D2|B4A2|"D"d4B2|"G"G6-|G6||
V:2 
|:B6|G6|G4E2|C6|G4G2|A4G2|E4_E2|B,6|1
B,6|B,2C2^C2|D4_D2|C6|D4F2|A4B2|G6-|G6:|2
B,6|D4G2|c4F2|D4B,2|D4F2|A4G2|D6|D6||
V:3 
|:G6|E6|D4C2|A,6|D4E2|F4E2|E4C2|G,6|1
G,6|G,4G,2|G,4^G,2|A,6|A,2C2D2|F4G2|D6-|D6:|2
G,6|B,4B,2|C4B,2|G,4G,2|G,2B,2D2|F4D2|B,6-|B,6||
% abcbook-tune_id 6342d5bed2786604f20c5037


% abcbook-boost 0
% abcbook-tablature 
% abcbook-transpose 
% abcbook-lastupdated 1665324492178
% abcbook-soundfonts 
% abcbook-repeats 1
% NFF Book 2009

